X:1
T:Knocknagow
M:C|
L:1/8
R:reel
Z:transcribed by Tracy Kingsley
Z:From the magazine Treoir (which issue) who reports:
Z:Recorded in London in 1931 by the Ballinakill Ceili Band,
Z:together with The Fowling Piece (aka The Templehouse Reel)
K:Ador
AB|cE E2 cded|cE E2 G2 AB|cE E2 cded|cABG A2 AB|
cE E2 cded|cE E2 G2 AB|c2 cB cded|cABG A2 :|
Bd|eaag efed|cdef g2 fg|eaag efed|cABG A2 Bd|
|eaag efed|(3Bcd ef g2 fg|afge fded|cABG A2 :|
